packages/icons/src/svg/mdm-positive.svg

<svg xmlns="http://www.w3.org/2000/svg" viewBox="0 0 16 16">
  <g>
    <path d="M2.5411,7.7934 L5.1021,7.7934 L5.1031,5.8714 C5.1191,5.1344 6.2991,4.5324 7.7961,4.4774 L7.7961,2.4744 C7.5791,2.4164 7.3971,2.2754 7.2851,2.0874 C4.5891,2.4244 2.4481,4.5694 2.1171,7.2684 C2.3231,7.3764 2.4791,7.5644 2.5411,7.7934"/>
    <path d="M5.6349 7.4565C6.1629 7.8145 7.0409 8.0495 8.0359 8.0495 9.0169 8.0495 9.8829 7.8205 10.4129 7.4725L10.4129 6.6465C9.8829 6.9965 9.0169 7.2255 8.0359 7.2255 7.0409 7.2255 6.1629 6.9895 5.6349 6.6315L5.6349 7.4565zM5.1017 10.0561L5.1007 10.0561 5.1017 8.2291 2.5447 8.2291C2.4847 8.4621 2.3297 8.6541 2.1227 8.7651 2.4687 11.4431 4.5997 13.5681 7.2807 13.9051 7.3927 13.7101 7.5777 13.5661 7.7997 13.5071L7.7997 11.4621C6.2937 11.4071 5.1067 10.7991 5.1017 10.0561"/>
    <path d="M5.6349 8.0307L5.6349 8.8557C6.1629 9.2147 7.0409 9.4487 8.0359 9.4487 9.0169 9.4487 9.8829 9.2197 10.4129 8.8717L10.4129 8.0467C9.8829 8.3957 9.0169 8.6247 8.0359 8.6247 7.0409 8.6247 6.1629 8.3887 5.6349 8.0307M8.7443 2.0844C8.6323 2.2734 8.4503 2.4154 8.2323 2.4744L8.2323 4.4764C9.7513 4.5274 10.9523 5.1384 10.9523 5.8874 10.9523 5.8874 10.9523 6.8134 10.9523 7.7924L13.4973 7.7834C13.5633 7.5514 13.7243 7.3614 13.9373 7.2574 13.6013 4.5554 11.4503 2.4094 8.7443 2.0844"/>
    <path d="M10.4127,9.4457 C9.8827,9.7957 9.0167,10.0237 8.0367,10.0237 C7.0407,10.0237 6.1627,9.7887 5.6347,9.4307 L5.6347,10.2557 C6.1627,10.6137 7.0407,10.8487 8.0367,10.8487 C9.0167,10.8487 9.8827,10.6207 10.4127,10.2707 L10.4127,9.4457 Z"/>
    <path d="M14.4718,8.851 C14.0888,11.768 11.7738,14.075 8.8528,14.445 C8.7948,14.858 8.4438,15.177 8.0138,15.177 C7.5828,15.177 7.2308,14.856 7.1758,14.441 C4.2688,14.059 1.9678,11.759 1.5848,8.854 C1.1818,8.787 0.8748,8.439 0.8748,8.018 C0.8748,7.598 1.1798,7.251 1.5788,7.182 C1.9458,4.256 4.2538,1.936 7.1738,1.553 C7.2258,1.132 7.5798,0.805 8.0138,0.805 C8.4468,0.805 8.8008,1.13 8.8538,1.549 C11.7878,1.921 14.1108,4.247 14.4778,7.184 C14.8668,7.262 15.1598,7.605 15.1598,8.018 C15.1598,8.432 14.8638,8.776 14.4718,8.851 M7.9998,0 C3.5818,0 -0.0002,3.581 -0.0002,8 C-0.0002,12.418 3.5818,16 7.9998,16 C12.4178,16 15.9998,12.418 15.9998,8 C15.9998,3.581 12.4178,0 7.9998,0"/>
    <path d="M13.4869,8.2192 L10.9519,8.2282 C10.9519,9.1762 10.9529,10.0512 10.9529,10.0522 C10.9529,10.8002 9.7539,11.4112 8.2349,11.4632 L8.2349,13.5102 C8.4559,13.5702 8.6389,13.7142 8.7499,13.9082 C11.4399,13.5822 13.5809,11.4572 13.9329,8.7762 C13.7119,8.6652 13.5469,8.4642 13.4869,8.2192"/>
  </g>
</svg>

<svg xmlns="http://www.w3.org/2000/svg" viewBox="0 0 16 16">
	<path d="M2.541 7.793h2.561l.001-1.922C5.12 5.134 6.3 4.532 7.796 4.477V2.474a.851.851 0 0 1-.51-.387 5.967 5.967 0 0 0-5.169 5.181.842.842 0 0 1 .424.525"/>
	<path d="M5.635 7.457c.528.357 1.406.593 2.4.593.982 0 1.848-.23 2.378-.578v-.826c-.53.35-1.396.58-2.377.58-.995 0-1.873-.237-2.401-.595v.825zm-.533 2.6H5.1V8.228H2.546a.848.848 0 0 1-.422.536 5.966 5.966 0 0 0 5.158 5.14.848.848 0 0 1 .519-.398v-2.045c-1.506-.055-2.693-.663-2.698-1.406"/>
	<path d="M5.635 8.03v.826c.528.359 1.406.593 2.4.593.982 0 1.848-.23 2.378-.577v-.825c-.53.349-1.396.578-2.377.578-.995 0-1.873-.236-2.401-.594m3.11-5.947a.855.855 0 0 1-.513.39v2.002c1.52.051 2.72.662 2.72 1.411v1.905l2.545-.009a.84.84 0 0 1 .44-.526 5.965 5.965 0 0 0-5.193-5.173"/>
	<path d="M10.413 9.446c-.53.35-1.396.578-2.376.578-.996 0-1.874-.235-2.402-.593v.825c.528.358 1.406.593 2.402.593.98 0 1.846-.228 2.376-.578v-.825z"/>
	<path d="M14.472 8.851a6.502 6.502 0 0 1-5.62 5.594.845.845 0 1 1-1.677-.004 6.504 6.504 0 0 1-5.59-5.587.848.848 0 0 1-.006-1.672 6.502 6.502 0 0 1 5.595-5.629.848.848 0 0 1 .84-.748c.433 0 .787.325.84.744a6.502 6.502 0 0 1 5.624 5.635.85.85 0 0 1-.006 1.667M8 0a8 8 0 1 0 0 16A8 8 0 0 0 8 0"/>
	<path d="M13.487 8.22l-2.535.008v1.824c0 .748-1.198 1.36-2.717 1.411v2.047a.85.85 0 0 1 .515.398 5.966 5.966 0 0 0 5.183-5.132.85.85 0 0 1-.446-.557"/>
</svg>
